X:1
T:Title
%%score 1 { ( 2 5 ) | ( 3 4 ) }
L:1/8
M:3/4
K:F
V:1 treble nm="Akkordion"
V:2 bass nm="Grand Piano"
V:5 bass 
V:3 bass 
V:4 bass 
V:1
 z2 z2[Q:1/4=108] F>G | A4 A2 | A2 G2 F2 | F2 E4- | E4 GA | B4 B2 | B2 A2 G2 | c6- |[M:2/4] c4 | %9
[M:1/4] FG |[M:3/4] A4 A2 | A2 B2 c2 | c2 B4- | B4 AG | F4 F2 | E2 A2 G2 | F6- |[M:2/4] F4 | %18
[M:1/4] z2 |[M:3/4] z6 | z6 | z6 | z6 | z6 | z6 | z6 |[M:2/4] z4 |[M:1/4] z2 |[M:3/4] z6 | z6 | %30
 z6 | z6 | z6 | z6 | z6 |[M:2/4] z4 |] %36
V:2
 z6 | F,,2[K:treble] F2 F2 | F,,2[K:treble] F2 F2 | G,,2 E2 E2 | G,,2 E2 E2 | C,2 E2 E2 | %6
 C,2 E2 E2 | A,,2[K:treble] F2 F2 |[M:2/4][K:bass] A,,2[K:treble] F2 |[M:1/4] F2 | %10
[M:3/4][K:bass] F,,2[K:treble] F2 F2 | F,,2[K:treble] F2 F2 | B,,2[K:treble] F2 F2 | %13
 B,,2[K:treble] F2 F2 | C,2[K:treble] F2 F2 | C,,2[K:treble] A2 G2 | [A,F]6- |[M:2/4] [A,F]4 | %18
[M:1/4] AB |[M:3/4] c4 c2 | [Ac]2 B2 [CFA]2 | [GB]6- | [GB]4 z2 | [GB]4 [GB]2 | [GB]2 A2 [CEG]2 | %25
 [FA]6- |[M:2/4] [FA]4 |[M:1/4] AG |[M:3/4] F4 F2 | c2 B2 [CFA]2 | [FB]6- | [FB]4 z2 | F2 F2 F2 | %33
 E2 A2 [EG]2 | [CF]6- |[M:2/4] [CF]4 |] %36
V:3
 z6 | z2 [A,C]2 [A,C]2 | z2 [A,C]2 [A,C]2 | z2 [B,C]2 [B,C]2 | z2 [B,C]2 [B,C]2 | %5
 z2 [B,C]2 [B,C]2 | z2 [B,C]2 z2 | z2 [A,C]2 [A,C]2 |[M:2/4] z2 [A,C]2 |[M:1/4] A,2 | %10
[M:3/4] z2 [A,C]2 [A,C]2 | z2 [A,C_E]2 [A,CE]2 | z2 [B,D]2 [B,D]2 | z2 [B,D]2 [B,D]2 | %14
 z2 [A,C]2 [A,C]2 | z2 C2 B,2 | F,,2 C,2 A,,2 |[M:2/4] F,,4 |[M:1/4] [F,CF][F,CF] | %19
[M:3/4] [F,A,F]4 [F,A,F]2 | z2 G2 F,2 | C,4 C,2 | C,4 [C,C][C,C] | [C,C]4 [C,C]2 | z2 F2 C,2 | %25
 F,4 F,2 |[M:2/4] F,4 |[M:1/4][K:treble] [CF][B,CE] |[M:3/4] [A,C]4 [A,C]2 | _E2 D2[K:bass] F,2 | %30
 B,,4 B,,2 | B,,4 B,,2 | [C,A,C]2 [C,A,C]2 [C,A,C]2 | [G,C]2 z2 z2 | [F,A,]6- |[M:2/4] [F,A,]4 |] %36
V:4
 x6 | x6 | x6 | x6 | x6 | x6 | x6 | x6 |[M:2/4] x4 |[M:1/4] x2 |[M:3/4] x6 | x6 | x6 | x6 | x6 | %15
 x6 | x6 |[M:2/4] x4 |[M:1/4] x2 |[M:3/4] x6 | [F,C]4 z2 | x6 | x6 | x6 | [C,C]4 z2 | x6 | %26
[M:2/4] x4 |[M:1/4][K:treble] x2 |[M:3/4] x6 | [F,F]4[K:bass] z2 | x6 | x6 | x6 | %33
 C,2- [C,CE]2 [C,B,]2 | x6 |[M:2/4] x4 |] %36
V:5
 x6 | x2[K:treble] x4 | x2[K:treble] x4 | x6 | x6 | x6 | x6 | x2[K:treble] x4 | %8
[M:2/4][K:bass] x2[K:treble] x2 |[M:1/4] x2 |[M:3/4][K:bass] x2[K:treble] x4 | x2[K:treble] x4 | %12
 x2[K:treble] x4 | x2[K:treble] x4 | x2[K:treble] x4 | x2[K:treble] x4 | x6 |[M:2/4] x4 | %18
[M:1/4] x2 |[M:3/4] x6 | x6 | C4 C2 | C4 [EG][FA] | x6 | x6 | C4 C2 |[M:2/4] C4 |[M:1/4] x2 | %28
[M:3/4] x6 | x6 | D4 D2 | D4 [B,DG]2 | x6 | x6 | x6 |[M:2/4] x4 |] %36

